svg/fluentui-system-icons/ic_fluent_open_16_filled.svg

<svg width="16" height="16" viewBox="0 0 16 16" fill="none" xmlns="http://www.w3.org/2000/svg">
<path d="M4.75 3.5C4.05964 3.5 3.5 4.05964 3.5 4.75V11.25C3.5 11.9404 4.05964 12.5 4.75 12.5H11.25C11.9404 12.5 12.5 11.9404 12.5 11.25V9.75C12.5 9.33579 12.8358 9 13.25 9C13.6642 9 14 9.33579 14 9.75V11.25C14 12.7688 12.7688 14 11.25 14H4.75C3.23122 14 2 12.7688 2 11.25V4.75C2 3.23122 3.23122 2 4.75 2H6.25C6.66421 2 7 2.33579 7 2.75C7 3.16421 6.66421 3.5 6.25 3.5H4.75ZM7.99976 2.75C7.99976 2.33579 8.33554 2 8.74976 2H13.2498C13.664 2 13.9998 2.33579 13.9998 2.75V7.25C13.9998 7.66421 13.664 8 13.2498 8C12.8355 8 12.4998 7.66421 12.4998 7.25V4.56095L9.28008 7.78056C8.98719 8.07345 8.51231 8.07345 8.21942 7.78055C7.92653 7.48766 7.92653 7.01278 8.21943 6.71989L11.4394 3.5H8.74976C8.33554 3.5 7.99976 3.16421 7.99976 2.75Z" fill="#212121"/>
</svg>

<svg xmlns="http://www.w3.org/2000/svg" width="16" height="16"><path d="M4.75 3.5c-.69 0-1.25.56-1.25 1.25v6.5c0 .69.56 1.25 1.25 1.25h6.5c.69 0 1.25-.56 1.25-1.25v-1.5a.75.75 0 0 1 1.5 0v1.5A2.75 2.75 0 0 1 11.25 14h-6.5A2.75 2.75 0 0 1 2 11.25v-6.5A2.75 2.75 0 0 1 4.75 2h1.5a.75.75 0 0 1 0 1.5h-1.5ZM8 2.75A.75.75 0 0 1 8.75 2h4.5a.75.75 0 0 1 .75.75v4.5a.75.75 0 0 1-1.5 0V4.561l-3.22 3.22A.75.75 0 1 1 8.22 6.72l3.22-3.22H8.75A.75.75 0 0 1 8 2.75Z"/></svg>
